X: 28
T: Rolling Waves, The
Z: chansherly212
S: https://thesession.org/tunes/88#setting53860
R: jig
M: 6/8
L: 1/8
K: Dmaj
|:"D"FEF DED|D2d "A"cAG|"D"FEF DED|"A"A2F GFE|
"D"FEF DED|D2d "A"cAG|"D"FAF "G"GBG|"G"A2F "A"GFE:|
|:"D"D2d "A"cAd|cAd cAG|"D"F2d cAG|A2F "A"GFE|
"D"D2d "A"cde|fed "A(G)"cAG|"D/F#m"FAF "G"GBG|"D/A"A2F "A7"GFE:|

%-------------------- TUNE SEPARATOR --------------------%

